X:59
T:Gan Ainm
R:Jig
S:Unknown flute player.
D:Clare FM broadcast. From the Miltown Malbay flute recital? 
M:6/8
Z:Bernie Stocks
K:G
|: D2B {d}BAG | Bdd dBG | cde dBG | ABA {B}AGE | D2B {d}BAG | Bdd dBG | def gdB | 
{d}BAF G3 :: ~b3 ~g3 | dgb bag | ~a3 ~f3 |1 dfa {b}aga :|2 dfa g3 :| e2e edB | 
edB g3 | gfg edB | cBc AGE | D2B {d}BAG | Bdd dBG | def gdB | {d}BAF G3 ||
<end>
<start>
